!!!SOCIAL_FUNCTION:	songs of the shuffling-feet dance
!!!PDT:	1918

Specific Region: Dakotas, Minnesota, Montana, Nebraska
!!!REG: Dakotas and Montana
!!!LING_GROUP: Siouan
!!!LANG: Tone
!!!OTL@ENG: Song of the Shuffling-feet Dance
!!!ONM: No. 201
**kern
*Imale
*clefF4
*k[f#c#g#d#a#]
*M2/4
*MM76
-2147483648F#
4f#
8f#
8g#
=2
8f#
8f#
16f#
8.c#
=3||
*M3/4
16c#
8.f#
8d#
16f#
16d#
8c#
8B
=4||
*M2/4
4c#
8c#
16f#
16c#
=5
8B
8G#
16F#
8.F#
=6||
*M3/4
16D#
8.F#
8.G#
16F#
4F#
=7||
*M2/4
16G#
8.F#
4F#
=8
16G#
8.F#
[4F#
=9
2F#]
=10
16f#
8.d#
16d#
8.c#
=11
(8f#
8c#)
16B
8.B
=12||
*M3/4
16B
8.c#
8c#
16c#
16c#
16d#
8.c#
=13||
*M2/4
12B
12B
12G#
16F#
8.F#
=14||
*M3/4
16D#
8.F#
8.G#
16F#
4F#
=15||
*M2/4
16G#
8.F#
4F#
=16
16G#
8.F#
[4F#
=17
2F#]
==
*-
!!!CNT: Native American -- Sioux
!!!MRD: 1911/07//-1914///
!!!OCL: Frances Densmore
!!!YOR1: Teton Sioux Music, Bulletin 61,
!!!YOR2: Bureau of American Ethnology, Smithsonian Institution
!!!PPR: Government Printing Office
!!!PPP: Washington, D.C.
!!!PDT: 1918///
!!!ENC: Craig Stuart Sapp
!!!END: 2002/03/25/
!!!EEV: 2002/03/31/
!!!AGN: Dance Song/Song of the Shuffling-feet Dance
!!!MPN@@SIO: Hanghe'-pikte
!!!MPN@ENG: Kills-at-Night and wife
!!!TXO: Teton Sioux
!!!MLC: Standing Rock Reservation, South Dakota, United States of America
!!!ARL: 45.9/-100.7#
!!!catalog: Catalogue No. 600
!!!PPG: 478
!!!EFL: 206/245
!!!VTS: 984470398
